X:1
T:Bucharest, CM
T:Bucharest, CM
T:Scott Werdebaugh, 1982
T:© 1982 Scott Werdebaugh. Reproduce or publish freely for Christian worship or devotions. Courtesy of the Cyber Hymnal™
C:Scott Werdebaugh, 1982
Z:© 1982 Scott Werdebaugh. Reproduce or publish freely for Christian worship or devotions.
Z:Courtesy of the Cyber Hymnal™
%%score 1 ( 2 3 ) 4
L:1/8
Q:1/4=113
M:4/4
K:C
V:1 treble 
V:2 treble 
V:3 treble 
V:4 bass 
V:1
 E2 | G2 E2 F2 E2 | E3 D C2 G2 | A2 G2 G3 F | E6 G2 | c2 B2 A2 G2 | A2 ^F2 G2 E2 | =F2 E2 E3 D | %8
 C6 |] %9
V:2
 [CE]2 | [EG]2 [CE]2 [CF]2 [CE]2 | [B,E]3 [B,D] C2 [EG]2 | [FA]2 [EG]2 [DG]3 [DF] | [CE]6 [EG]2 | %5
 [Gc]2 [GB]2 [FA]2 [EG]2 | [^FA]2 [DF]2 [DG]2 [EG]2 | [C=F]2 [CE]2 [B,E]3 [B,D] | C6 |] %9
V:3
 x2 | x8 | x4 C2 x2 | x8 | x8 | x8 | x8 | x8 | C6 |] %9
V:4
 [C,G,]2 | [C,G,]2 [C,G,]2 [F,A,]2 [C,G,]2 | [D,G,]3 [G,,G,] [C,E,]2 [C,G,]2 | %3
 [C,F,]2 [C,G,]2 [G,B,]3 [G,B,] | [C,G,]6 [C,G,]2 | [C,E,]2 [D,G,]2 [F,C]2 [G,C]2 | %6
 [D,A,]2 [D,A,]2 [G,B,]2 [C,G,]2 | [F,A,]2 [C,G,]2 [D,G,]3 [G,,G,] | [C,E,]6 |] %9

